X: 20222
Q: "Slow."
M: C
L: 1/8
K: Flyd
{FG}A2G2 G2(FG) | A2G2 G2(FD) |\
(C>D)(F>G) A3d | (cA)(GA) (F>G)Ac |\
d2D2 D2(C>D) | F2D2 D2 |]
(cd) |\
f3g (fga)g | (fc)(df) (cA)(GF) |\
{FG}A2G2 G2(FG) | A2G2 G2(fg) |\
(a/g/f) (ga) fcdf | (cG)(AF) (GA) (_Bc) |\
d2D2 D2(CD) | F2D2 D2 |]


